X: 4
T: The Halting
R: march
M: 4/4
L: 1/8
K: Amin
A2-A/ B/c/d/ e3 d|e>d ef ec A2|
G2-G/ A/B/c/ d3 e|d B GB d2 cB|
A2-A/ B/c/d/ e3 d|e>d ef ec A2|
a g2 e d c2 B|A>B AG|1 A2E2:|2 A2z2||
|:a a2 g e d2 e|g>^f ge dB G2|
a a2 g e d2 e|g>a ge g2 d/e/f/g/|
a a2 g e d2 e|g>^f ge dB G2|
A>B cd edcB |1 A>B cd e4:|2 A>B AG A4|